X:1
T:Exeter (Plymouth), CM
T:Exeter (Plymouth), CM
T:Plymouth Collection, 1855
T:Public Domain Courtesy of the Cyber Hymnal™
C:Plymouth Collection, 1855
Z:Public Domain
Z:Courtesy of the Cyber Hymnal™
%%score ( 1 2 ) ( 3 4 )
L:1/8
Q:1/4=105
M:2/4
K:Bb
V:1 treble 
V:2 treble 
V:3 bass 
V:4 bass 
V:1
 [DB]2 [FB][Fc] | [Fd]2 [FB]2 | G2 [FA]2 | [FB]3 [Fd] | [Fc]2 (cB) | [FA]2 [=EG]2 | F3 F | BA GF | %8
 B2 (cd) | e2 [Fd]2 | (d2 c)[FA] | [FB]2 (Ge) | ([Bd][Gc]) (BA) | [FB]3 |] %14
V:2
 x4 | x4 | G2 x2 | x4 | x2 F2 | x4 | F3 F | (BA) (GF) | B2 G2 | (GF) x2 | F3 x | x2 G2 | x2 F2 | %13
 x3 |] %14
V:3
 [B,,F,]2 [D,F,][F,A,] | B,2 [D,B,]2 | [E,B,]2 [F,E]2 | [B,,D]3 [B,,B,] | [F,A,]2 ([A,,C][B,,D]) | %5
 [C,C]2 (CB,) | [F,A,]3 F, | B,A, G,F, | B,2 ([E,C][D,=B,]) | (CA,) B,2 | (B,2 A,)[E,C] | %11
 [D,B,]2 ([E,B,][C,C]) | ([D,B,][E,C]) (DE) | [B,,D]3 |] %14
V:4
 x4 | B,2 x2 | x4 | x4 | x4 | x2 C,2 | x3 F, | (B,A,) (G,F,) | =B,2 x2 | C,2 (B,,D,) | F,3 x | x4 | %12
 x2 F,2 | x3 |] %14

